Papirus/24x24/apps/colorpicker.svg

<svg xmlns="http://www.w3.org/2000/svg" width="24" height="24" version="1">
 <rect width="20" height="20" x="-22" y="-22" rx="1" ry="1" transform="matrix(0,-1,-1,0,0,0)" style="fill:#713a9d"/>
 <path fill="#fff" opacity=".1" d="m3 2c-0.554 0-1 0.446-1 1v0.5c0-0.554 0.446-1 1-1h18c0.554 0 1 0.446 1 1v-0.5c0-0.554-0.446-1-1-1h-18z"/>
 <path opacity=".2" d="m3 22.5c-0.554 0-1-0.446-1-1v-0.5c0 0.554 0.446 1 1 1h18c0.554 0 1-0.446 1-1v0.5c0 0.554-0.446 1-1 1h-18z"/>
 <path style="opacity:0.5;fill:#ffffff" d="m 11,11 v 2 h 6 c 0.554,0 1,-0.446 1,-1 0,-0.554 -0.446,-1 -1,-1 z m 2,5 v 2 h 4 c 0.554,0 1,-0.446 1,-1 0,-0.554 -0.446,-1 -1,-1 z"/>
 <path style="fill:#f44336" d="M 16,6 H 7 C 6.446,6 6,6.446 6,7 6,7.554 6.446,8 7,8 h 9 z"/>
 <path style="fill:#03a9f4" d="M 13,16 H 7 C 6.446,16 6,16.446 6,17 6,17.554 6.446,18 7,18 H 13 Z"/>
 <path style="fill:#4caf50" d="M 11,11 H 7 C 6.446,11 6,11.446 6,12 6,12.554 6.446,13 7,13 H 11 Z"/>
 <path style="opacity:0.2" d="m 18,7.5 c 0,-1.1046 -0.895,-2 -2,-2 -1.105,0 -2,0.8954 -2,2 0,1.1046 0.895,2 2,2 1.105,0 2,-0.8954 2,-2 z"/>
 <path style="opacity:0.2" d="m 15,17.5 c 0,-1.105 -0.895,-2 -2,-2 -1.105,0 -2,0.895 -2,2 0,1.105 0.895,2 2,2 1.105,0 2,-0.895 2,-2 z"/>
 <path style="opacity:0.2" d="m 13,12.5 c 0,-1.105 -0.895,-2 -2,-2 -1.1046,0 -2,0.895 -2,2 0,1.105 0.8954,2 2,2 1.105,0 2,-0.895 2,-2 z"/>
 <path style="fill:#ffffff" d="m 18,7 c 0,-1.1046 -0.895,-2 -2,-2 -1.105,0 -2,0.8954 -2,2 0,1.1046 0.895,2 2,2 1.105,0 2,-0.8954 2,-2 z"/>
 <path style="fill:#ffffff" d="m 15,17 c 0,-1.105 -0.895,-2 -2,-2 -1.105,0 -2,0.895 -2,2 0,1.105 0.895,2 2,2 1.105,0 2,-0.895 2,-2 z"/>
 <path style="fill:#ffffff" d="m 13,12 c 0,-1.105 -0.895,-2 -2,-2 -1.1046,0 -2,0.895 -2,2 0,1.105 0.8954,2 2,2 1.105,0 2,-0.895 2,-2 z"/>
</svg>

<svg xmlns="http://www.w3.org/2000/svg" width="24" height="24" version="1">
 <rect width="20" height="20" x="-22" y="-22" rx="1" ry="1" transform="matrix(0,-1,-1,0,0,0)" style="fill:#7327b0"/>
 <path fill="#fff" opacity=".2" d="m3 2c-0.554 0-1 0.446-1 1v0.5c0-0.554 0.446-1 1-1h18c0.554 0 1 0.446 1 1v-0.5c0-0.554-0.446-1-1-1h-18z"/>
 <path opacity=".2" d="m3 22.5c-0.554 0-1-0.446-1-1v-0.5c0 0.554 0.446 1 1 1h18c0.554 0 1-0.446 1-1v0.5c0 0.554-0.446 1-1 1h-18z"/>
 <path style="opacity:0.5;fill:#ffffff" d="M 18,7 C 18,6.446 17.554,6 17,6 L 7,6 C 6.446,6 6,6.446 6,7 6,7.554 6.446,8 7,8 L 17,8 C 17.554,8 18,7.554 18,7 Z M 18,12 C 18,11.446 17.554,11 17,11 L 7,11 C 6.446,11 6,11.446 6,12 6,12.554 6.446,13 7,13 L 17,13 C 17.554,13 18,12.554 18,12 Z M 18,17 C 18,16.446 17.554,16 17,16 H 7 C 6.446,16 6,16.446 6,17 6,17.554 6.446,18 7,18 H 17 C 17.554,18 18,17.554 18,17 Z"/>
 <path style="fill:#f44336" d="M 14,6 H 7 C 6.446,6 6,6.446 6,7 6,7.554 6.446,8 7,8 H 14 Z"/>
 <path style="fill:#03a9f4" d="M 13,16 H 7 C 6.446,16 6,16.446 6,17 6,17.554 6.446,18 7,18 H 13 Z"/>
 <path style="fill:#4caf50" d="M 11,11 H 7 C 6.446,11 6,11.446 6,12 6,12.554 6.446,13 7,13 H 11 Z"/>
 <path d="M 16,7.5 C 16,6.3954 15.105,5.5 14,5.5 12.895,5.5 12,6.3954 12,7.5 12,8.6046 12.895,9.5 14,9.5 15.105,9.5 16,8.6046 16,7.5 Z M 15,17.5 C 15,16.395 14.105,15.5 13,15.5 11.895,15.5 11,16.395 11,17.5 11,18.605 11.895,19.5 13,19.5 14.105,19.5 15,18.605 15,17.5 Z M 13,12.5 C 13,11.395 12.105,10.5 11,10.5 9.8954,10.5 9,11.395 9,12.5 9,13.605 9.8954,14.5 11,14.5 12.105,14.5 13,13.605 13,12.5 Z" style="opacity:0.2"/>
 <path d="M 16,7 C 16,5.8954 15.105,5 14,5 12.895,5 12,5.8954 12,7 12,8.1046 12.895,9 14,9 15.105,9 16,8.1046 16,7 Z M 15,17 C 15,15.895 14.105,15 13,15 11.895,15 11,15.895 11,17 11,18.105 11.895,19 13,19 14.105,19 15,18.105 15,17 Z M 13,12 C 13,10.895 12.105,10 11,10 9.8954,10 9,10.895 9,12 9,13.105 9.8954,14 11,14 12.105,14 13,13.105 13,12 Z" style="fill:#ffffff"/>
</svg>
